icons/grid/grid-2x2.svg

<svg width="14" height="14" viewBox="0 0 14 14" fill="none" xmlns="http://www.w3.org/2000/svg">
<path d="M7 11H4C3.44772 11 3 10.5523 3 10V7M7 11H10C10.5523 11 11 10.5523 11 10V7M7 11V3M7 3H10C10.5523 3 11 3.44772 11 4V7M7 3H4C3.44772 3 3 3.44772 3 4V7M3 7H11" stroke="red" stroke-linejoin="round"/>
</svg>

<svg xmlns="http://www.w3.org/2000/svg" width="14" height="14" fill="none" viewBox="0 0 14 14"><path stroke="red" stroke-linejoin="round" d="M7 11H4a1 1 0 0 1-1-1V7m4 4h3a1 1 0 0 0 1-1V7m-4 4V3m0 0h3a1 1 0 0 1 1 1v3M7 3H4a1 1 0 0 0-1 1v3m0 0h8"/></svg>
